X: 13788
T: Forty-Two Pound Cheque, The
R: polka
M: 2/4
K: Dmajor
|:Ad Bd/B/|AD FA|GE A>A|A/B/A/G/ FD|
Ad Bd/B/|AD FA|GE c>d|ed d2:|
|:Ad fe/f/|gf e>d|c/B/A eA|e>d c/B/A|
Ad fe/f/|gf e>d|c/B/A Bc|d2 d2:|

